X:10348
T:Mark Osborne's Reel
R:Reel
C:Bruce Osborne  --  Jan.14 1991
M:2/4
L:1/16
K:A
Ac|:ecac fecf|ecAc BABc|dBGB EGBG|ABcf e2Ac|!
ecac fecf|ecAc BABc|dBGB EGBG|AcBG A2Ac:|!
|:A,CEC DFAF|EGBc A2Ac|ecac fecf|ecAc B2 (3cBA|!
A,CEC DFAF|EGBc A2Ac|ecac BAGB|AcBG A2A2:|!
